src/asset/call.svg

<svg width="50" height="50" viewBox="0 0 50 50" fill="none" xmlns="http://www.w3.org/2000/svg">
<mask id="path-1-inside-1_26_82" fill="white">
<path d="M9.42014 0.323658C7.57814 1.38393 1.96283 7.8683 0.35526 10.7924C-0.0243039 11.4732 -0.0354676 11.5402 0.0315143 12.2545C0.277115 14.6429 1.33766 18.0692 2.8001 21.2054C4.41883 24.654 7.15392 28.7835 10.2574 32.4777C11.8427 34.3638 15.5601 38.0804 17.4021 39.6429C24.078 45.2679 30.8097 48.7946 36.8716 49.8326C37.4186 49.9219 38.0102 50 38.2 50C38.8364 50 40.6002 48.8616 43.2683 46.7411C46.7067 43.9955 49.4195 41.317 49.8772 40.2009C50.2568 39.2969 49.52 38.4598 46.8518 36.6853C42.9781 34.1295 39.3722 32.0982 37.6642 31.529C36.8716 31.2612 36.8046 31.25 36.4138 31.4174C35.8668 31.6406 35.5207 31.9866 33.9802 33.7612C33.288 34.5536 32.4954 35.4241 32.2275 35.692L31.7251 36.1719L31.0106 35.9933C28.6886 35.3906 25.5404 33.75 22.9282 31.7746C21.7783 30.8929 19.8358 29.0179 18.7641 27.7344C16.7323 25.3125 14.8122 21.8304 14.0419 19.1629L13.7963 18.2924L14.3991 17.6786C14.734 17.3326 15.5601 16.5848 16.23 16.0156C17.7929 14.6987 18.3511 14.1071 18.5632 13.5938C18.7306 13.2143 18.7195 13.125 18.5074 12.4554C17.8822 10.4241 13.3163 2.73438 11.664 0.926338C10.7486 -0.078125 10.3244 -0.200893 9.42014 0.323658Z"/>
</mask>
<path d="M9.42014 0.323658C7.57814 1.38393 1.96283 7.8683 0.35526 10.7924C-0.0243039 11.4732 -0.0354676 11.5402 0.0315143 12.2545C0.277115 14.6429 1.33766 18.0692 2.8001 21.2054C4.41883 24.654 7.15392 28.7835 10.2574 32.4777C11.8427 34.3638 15.5601 38.0804 17.4021 39.6429C24.078 45.2679 30.8097 48.7946 36.8716 49.8326C37.4186 49.9219 38.0102 50 38.2 50C38.8364 50 40.6002 48.8616 43.2683 46.7411C46.7067 43.9955 49.4195 41.317 49.8772 40.2009C50.2568 39.2969 49.52 38.4598 46.8518 36.6853C42.9781 34.1295 39.3722 32.0982 37.6642 31.529C36.8716 31.2612 36.8046 31.25 36.4138 31.4174C35.8668 31.6406 35.5207 31.9866 33.9802 33.7612C33.288 34.5536 32.4954 35.4241 32.2275 35.692L31.7251 36.1719L31.0106 35.9933C28.6886 35.3906 25.5404 33.75 22.9282 31.7746C21.7783 30.8929 19.8358 29.0179 18.7641 27.7344C16.7323 25.3125 14.8122 21.8304 14.0419 19.1629L13.7963 18.2924L14.3991 17.6786C14.734 17.3326 15.5601 16.5848 16.23 16.0156C17.7929 14.6987 18.3511 14.1071 18.5632 13.5938C18.7306 13.2143 18.7195 13.125 18.5074 12.4554C17.8822 10.4241 13.3163 2.73438 11.664 0.926338C10.7486 -0.078125 10.3244 -0.200893 9.42014 0.323658Z" fill="#FFDD87"/>
<path d="M9.42014 0.323658L10.4237 2.05366L10.4179 2.05702L9.42014 0.323658ZM0.35526 10.7924L2.1079 11.7559L2.10211 11.7663L0.35526 10.7924ZM0.0315143 12.2545L-1.95799 12.459L-1.95891 12.4501L-1.95975 12.4412L0.0315143 12.2545ZM2.8001 21.2054L0.989613 22.0552L0.987488 22.0506L2.8001 21.2054ZM10.2574 32.4777L8.72635 33.7645L8.72608 33.7642L10.2574 32.4777ZM17.4021 39.6429L16.1134 41.1723L16.1084 41.168L17.4021 39.6429ZM36.8716 49.8326L36.5494 51.8065L36.5417 51.8052L36.534 51.8039L36.8716 49.8326ZM43.2683 46.7411L44.5163 48.304L44.5127 48.3068L43.2683 46.7411ZM49.8772 40.2009L48.0268 39.442L48.0299 39.4343L48.0331 39.4266L49.8772 40.2009ZM46.8518 36.6853L47.9533 35.0159L47.9594 35.02L46.8518 36.6853ZM37.6642 31.529L37.0319 33.4265L37.0239 33.4237L37.6642 31.529ZM36.4138 31.4174L37.2015 33.2558L37.1855 33.2626L37.1695 33.2692L36.4138 31.4174ZM33.9802 33.7612L35.4904 35.0723L35.4865 35.0769L33.9802 33.7612ZM32.2275 35.692L33.6415 37.1064L33.6254 37.1224L33.609 37.1381L32.2275 35.692ZM31.7251 36.1719L33.1066 37.618L32.3096 38.3795L31.2402 38.1122L31.7251 36.1719ZM31.0106 35.9933L30.5257 37.9336L30.5169 37.9314L30.5082 37.9292L31.0106 35.9933ZM22.9282 31.7746L21.7218 33.3698L21.7112 33.3617L22.9282 31.7746ZM18.7641 27.7344L20.2963 26.4489L20.2993 26.4525L18.7641 27.7344ZM14.0419 19.1629L12.1204 19.7178L12.117 19.706L14.0419 19.1629ZM13.7963 18.2924L11.8714 18.8355L11.5564 17.7188L12.3693 16.891L13.7963 18.2924ZM14.3991 17.6786L15.8362 19.0696L15.8311 19.0748L15.8261 19.0799L14.3991 17.6786ZM16.23 16.0156L14.9349 14.4916L14.9412 14.4862L16.23 16.0156ZM18.5632 13.5938L16.7147 12.8301L16.7238 12.8081L16.7334 12.7863L18.5632 13.5938ZM18.5074 12.4554L16.6007 13.0593L16.5982 13.0515L16.5958 13.0437L18.5074 12.4554ZM11.664 0.926338L10.1876 2.27551L10.1858 2.27351L11.664 0.926338ZM10.4179 2.05702C10.2086 2.17747 9.67715 2.60742 8.86001 3.41661C8.09482 4.17436 7.20537 5.1363 6.31172 6.16832C4.48991 8.27219 2.80344 10.4907 2.10787 11.7559L-1.39735 9.82889C-0.485357 8.17001 1.43961 5.68428 3.28786 3.54987C4.22923 2.46275 5.18946 1.42204 6.04544 0.57439C6.84947 -0.221821 7.71067 -1.00002 8.42241 -1.4097L10.4179 2.05702ZM2.10211 11.7663C2.05605 11.8489 2.0216 11.9115 1.99401 11.9632C1.96643 12.0148 1.95166 12.0446 1.94405 12.0607C1.93068 12.0891 1.95825 12.0364 1.97962 11.9388C2.00186 11.8373 1.99981 11.7682 2.00003 11.7788C2.00024 11.7886 2.00118 11.8136 2.00503 11.8649C2.0089 11.9166 2.01455 11.9799 2.02278 12.0677L-1.95975 12.4412C-1.9865 12.156 -2.04861 11.6347 -1.92775 11.083C-1.81081 10.5491 -1.54618 10.0958 -1.39159 9.8185L2.10211 11.7663ZM2.02102 12.0499C2.2361 14.1415 3.20638 17.3443 4.61271 20.3601L0.987488 22.0506C-0.531059 18.7941 -1.68187 15.1443 -1.95799 12.459L2.02102 12.0499ZM4.61058 20.3556C6.13861 23.611 8.76783 27.5953 11.7887 31.1912L8.72608 33.7642C5.54001 29.9717 2.69904 25.697 0.989619 22.0552L4.61058 20.3556ZM11.7885 31.1909C13.2991 32.9882 16.9367 36.6254 18.6959 38.1177L16.1084 41.168C14.1836 39.5353 10.3862 35.7394 8.72635 33.7645L11.7885 31.1909ZM18.6909 38.1134C25.2035 43.6009 31.6157 46.9036 37.2091 47.8613L36.534 51.8039C30.0036 50.6857 22.9525 46.9349 16.1134 41.1723L18.6909 38.1134ZM37.1937 47.8587C37.4481 47.9002 37.7097 47.9386 37.9234 47.9659C38.0307 47.9797 38.1175 47.9895 38.1807 47.9956C38.2618 48.0034 38.2542 48 38.2 48V52C37.8139 52 37.0458 51.8875 36.5494 51.8065L37.1937 47.8587ZM38.2 48C37.8868 48 37.7733 48.1021 38.032 47.9801C38.2185 47.8921 38.5006 47.7345 38.8898 47.484C39.6635 46.986 40.7126 46.2176 42.0239 45.1753L44.5127 48.3068C43.156 49.3851 41.9891 50.2461 41.0547 50.8475C40.5899 51.1466 40.1449 51.4061 39.7383 51.5979C39.404 51.7556 38.8315 52 38.2 52V48ZM42.0204 45.1782C43.6973 43.8392 45.1798 42.5301 46.2842 41.4379C46.8376 40.8906 47.2771 40.4164 47.5929 40.034C47.9425 39.6106 48.0329 39.427 48.0268 39.442L51.7276 40.9598C51.4926 41.5328 51.0723 42.1025 50.6771 42.5811C50.2481 43.1006 49.7086 43.6769 49.0969 44.282C47.8708 45.4945 46.2777 46.8975 44.5163 48.304L42.0204 45.1782ZM48.0331 39.4266C47.9827 39.5468 47.9403 39.7642 47.9977 39.9974C48.0424 40.1794 48.1111 40.2125 47.9943 40.0774C47.7244 39.7652 47.0906 39.246 45.7443 38.3506L47.9594 35.02C49.2812 35.8991 50.3498 36.6857 51.0205 37.4617C51.374 37.8706 51.7224 38.3935 51.8819 39.0421C52.0541 39.7419 51.9615 40.403 51.7213 40.9751L48.0331 39.4266ZM45.7504 38.3547C41.8589 35.7872 38.457 33.9013 37.0319 33.4264L38.2965 29.6316C40.2875 30.2951 44.0972 32.4717 47.9533 35.0159L45.7504 38.3547ZM37.0239 33.4237C36.9254 33.3905 36.8461 33.3639 36.7782 33.3417C36.71 33.3194 36.6631 33.3049 36.6297 33.2951C36.596 33.2853 36.5881 33.284 36.5973 33.286C36.6074 33.2882 36.6452 33.296 36.7027 33.3014C36.7633 33.307 36.8386 33.3093 36.924 33.3028C37.0097 33.2962 37.0848 33.2825 37.1454 33.2674C37.2022 33.2533 37.239 33.2397 37.2456 33.2373C37.2501 33.2356 37.241 33.2389 37.2015 33.2558L35.6262 29.579C35.8678 29.4755 36.3783 29.2538 37.0739 29.3186C37.5287 29.361 38.0093 29.5345 38.3045 29.6343L37.0239 33.4237ZM37.1695 33.2692C37.1516 33.2765 37.1475 33.2789 37.1506 33.2773C37.1541 33.2754 37.1552 33.2745 37.1509 33.2774C37.1393 33.2854 37.0844 33.3247 36.9603 33.4448C36.688 33.7083 36.2769 34.1664 35.4904 35.0723L32.4699 32.45C33.8708 30.8364 34.5634 30.0124 35.6582 29.5656L37.1695 33.2692ZM35.4865 35.0769C34.7948 35.8687 33.9624 36.7855 33.6415 37.1064L30.8134 34.2776C31.0284 34.0627 31.7812 33.2385 32.4739 32.4455L35.4865 35.0769ZM33.609 37.1381L33.1066 37.618L30.3436 34.7257L30.8459 34.2458L33.609 37.1381ZM31.2402 38.1122L30.5257 37.9336L31.4956 34.053L32.2101 34.2316L31.2402 38.1122ZM30.5082 37.9292C27.858 37.2413 24.4737 35.4508 21.7218 33.3698L24.1345 30.1793C26.6072 32.0492 29.5192 33.5399 31.5131 34.0574L30.5082 37.9292ZM21.7112 33.3617C20.4342 32.3825 18.3866 30.4027 17.2289 29.0163L20.2993 26.4525C21.2851 27.6331 23.1224 29.4032 24.1451 30.1874L21.7112 33.3617ZM17.2319 29.0198C15.0463 26.4146 12.9784 22.6889 12.1204 19.7178L15.9634 18.6081C16.646 20.9718 18.4183 24.2104 20.2963 26.449L17.2319 29.0198ZM12.117 19.706L11.8714 18.8355L15.7212 17.7494L15.9668 18.6199L12.117 19.706ZM12.3693 16.891L12.9722 16.2772L15.8261 19.0799L15.2232 19.6938L12.3693 16.891ZM12.9621 16.2875C13.3672 15.8691 14.254 15.0702 14.9349 14.4916L17.5251 17.5397C16.8663 18.0994 16.1009 18.7961 15.8362 19.0696L12.9621 16.2875ZM14.9412 14.4862C15.7137 13.8353 16.1759 13.4147 16.46 13.1187C16.7436 12.8231 16.745 12.7567 16.7147 12.8301L20.4116 14.3574C20.1692 14.9442 19.7855 15.4303 19.3462 15.888C18.9074 16.3454 18.3091 16.879 17.5187 17.545L14.9412 14.4862ZM16.7334 12.7863C16.748 12.7532 16.7511 12.7448 16.7492 12.7496C16.7469 12.7558 16.7351 12.7872 16.722 12.8363C16.7083 12.888 16.6945 12.954 16.6863 13.031C16.6781 13.1084 16.6772 13.1799 16.6806 13.2423C16.6868 13.3562 16.7066 13.4162 16.6937 13.3666C16.6883 13.3457 16.6788 13.312 16.6626 13.2582C16.6465 13.2047 16.6265 13.1407 16.6007 13.0593L20.414 11.8514C20.4931 12.1011 20.6494 12.5621 20.6746 13.0244C20.71 13.6731 20.5017 14.1548 20.3929 14.4012L16.7334 12.7863ZM16.5958 13.0437C16.5007 12.7345 16.182 12.0239 15.6348 10.9789C15.1135 9.9831 14.4508 8.8068 13.7511 7.62809C12.3079 5.19709 10.8525 3.00306 10.1876 2.2755L13.1404 -0.422825C14.1278 0.65765 15.7815 3.21251 17.1906 5.58619C17.917 6.80983 18.6163 8.04982 19.1785 9.1236C19.715 10.1482 20.2014 11.1605 20.4189 11.867L16.5958 13.0437ZM10.1858 2.27351C10.0893 2.16761 10.0106 2.08585 9.94559 2.02245C9.88021 1.95869 9.83727 1.92196 9.81308 1.90281C9.76007 1.86085 9.83391 1.93281 10.0132 1.98155C10.1055 2.00666 10.2048 2.01979 10.3041 2.01891C10.4011 2.01804 10.4759 2.00401 10.5212 1.99237C10.5638 1.98141 10.5783 1.97308 10.5581 1.98217C10.5375 1.99142 10.4949 2.01235 10.4237 2.05365L8.41658 -1.40633C8.98425 -1.73563 9.92492 -2.18766 11.0626 -1.87832C12.019 -1.61829 12.7013 -0.904694 13.1423 -0.420834L10.1858 2.27351Z" fill="#996E00" mask="url(#path-1-inside-1_26_82)"/>
<path d="M27.7795 1.02071V1.78579V2.58036C30.2002 2.67087 33.1894 3.44694 35.5473 4.56529L35.5491 4.56614C39.8447 6.61392 43.102 9.79765 45.2013 14.0069L45.2016 14.0075C46.5076 16.6304 47.078 18.6383 47.3345 21.5875L47.389 22.2144H48.2361H48.9815C48.9266 21.3114 48.7559 19.897 48.5603 18.8838L48.56 18.8819C47.9322 15.5949 46.1614 11.8107 44.083 9.29819C40.2364 4.6493 35.1111 1.84506 29.2552 1.16092C28.7226 1.10009 28.1629 1.04808 27.7795 1.02071Z" fill="#FFDD87" stroke="#996E00" stroke-width="2"/>
<path d="M40.042 22.2144C39.9881 21.6141 39.8553 20.8681 39.6609 20.0926C39.4035 19.0661 39.06 18.0749 38.7148 17.3945L38.7129 17.3908C37.4437 14.8634 35.1851 12.5797 32.7515 11.3633L32.7491 11.3621C31.2216 10.5934 29.5172 10.1167 27.7795 9.97515V10.6809V11.5511C30.615 11.7907 33.0907 12.9839 35.141 15.0815C37.0998 17.0765 38.2045 19.4658 38.4446 22.2144H39.294H40.042Z" fill="#FFDD87" stroke="#996E00" stroke-width="2"/>
</svg>

<svg xmlns="http://www.w3.org/2000/svg" width="50" height="50" fill="none"><mask id="a" fill="#fff"><path d="M9.42.324C7.578 1.384 1.963 7.868.355 10.792c-.38.681-.39.748-.323 1.463.245 2.388 1.306 5.814 2.768 8.95 1.619 3.449 4.354 7.579 7.457 11.273 1.586 1.886 5.303 5.602 7.145 7.165 6.676 5.625 13.408 9.152 19.47 10.19.547.089 1.138.167 1.328.167.636 0 2.4-1.138 5.068-3.259 3.439-2.745 6.151-5.424 6.61-6.54.379-.904-.358-1.741-3.026-3.516-3.874-2.556-7.48-4.587-9.188-5.156-.792-.268-.86-.279-1.25-.112-.547.224-.893.57-2.434 2.344a56.866 56.866 0 0 1-1.752 1.931l-.503.48-.714-.179c-2.322-.602-5.47-2.243-8.083-4.218-1.15-.882-3.092-2.757-4.164-4.04-2.032-2.422-3.952-5.905-4.722-8.572l-.246-.87.603-.614c.335-.346 1.161-1.094 1.831-1.663 1.563-1.317 2.121-1.909 2.333-2.422.168-.38.157-.469-.056-1.139-.625-2.03-5.19-9.72-6.843-11.529C10.749-.078 10.324-.2 9.42.324Z"/></mask><path fill="#FFDD87" d="M9.42.324C7.578 1.384 1.963 7.868.355 10.792c-.38.681-.39.748-.323 1.463.245 2.388 1.306 5.814 2.768 8.95 1.619 3.449 4.354 7.579 7.457 11.273 1.586 1.886 5.303 5.602 7.145 7.165 6.676 5.625 13.408 9.152 19.47 10.19.547.089 1.138.167 1.328.167.636 0 2.4-1.138 5.068-3.259 3.439-2.745 6.151-5.424 6.61-6.54.379-.904-.358-1.741-3.026-3.516-3.874-2.556-7.48-4.587-9.188-5.156-.792-.268-.86-.279-1.25-.112-.547.224-.893.57-2.434 2.344a56.866 56.866 0 0 1-1.752 1.931l-.503.48-.714-.179c-2.322-.602-5.47-2.243-8.083-4.218-1.15-.882-3.092-2.757-4.164-4.04-2.032-2.422-3.952-5.905-4.722-8.572l-.246-.87.603-.614c.335-.346 1.161-1.094 1.831-1.663 1.563-1.317 2.121-1.909 2.333-2.422.168-.38.157-.469-.056-1.139-.625-2.03-5.19-9.72-6.843-11.529C10.749-.078 10.324-.2 9.42.324Z"/><path fill="#996E00" d="m9.42.324 1.004 1.73-.006.003L9.42.324ZM.355 10.792l1.753.964-.006.01-1.747-.974Zm-.323 1.463-1.99.204v-.009l-.002-.009 1.992-.187Zm2.768 8.95-1.81.85-.003-.004 1.813-.846Zm7.457 11.273-1.53 1.286 1.53-1.286Zm7.145 7.165-1.289 1.53-.005-.005 1.294-1.525Zm19.47 10.19-.323 1.974-.007-.002-.008-.001.338-1.971Zm6.396-3.092 1.248 1.563-.003.003-1.245-1.566Zm6.61-6.54-1.851-.759.003-.008.003-.007 1.844.774Zm-3.026-3.516 1.101-1.67.006.005-1.107 1.665Zm-9.188-5.156-.632 1.897-.008-.002.64-1.895Zm-1.25-.112.788 1.839-.017.007-.016.006-.755-1.852Zm-2.434 2.344 1.51 1.311-.004.005-1.506-1.316Zm-1.752 1.931 1.413 1.414-.016.016-.016.016-1.382-1.446Zm-.503.48 1.382 1.446-.797.761-1.07-.267.485-1.94Zm-.714-.179-.485 1.94-.01-.002-.008-.002.503-1.936Zm-8.083-4.218-1.206 1.595-.01-.008 1.216-1.587Zm-4.164-4.04 1.532-1.286.003.003-1.535 1.282Zm-4.722-8.572-1.922.555-.003-.012 1.925-.543Zm-.246-.87-1.925.543-.315-1.117.813-.828 1.427 1.401Zm.603-.614 1.437 1.39-.005.006-.005.005-1.427-1.401Zm1.831-1.663-1.295-1.524.006-.006 1.289 1.53Zm2.333-2.422-1.848-.764.009-.022.01-.022 1.83.808Zm-.056-1.139-1.906.604-.003-.007-.002-.008 1.911-.589ZM11.664.926l-1.476 1.35-.002-.002L11.664.926Zm-1.246 1.131c-.21.12-.74.55-1.558 1.36a50.752 50.752 0 0 0-2.548 2.751c-1.822 2.104-3.509 4.323-4.204 5.588l-3.505-1.927c.912-1.659 2.837-4.145 4.685-6.28A54.695 54.695 0 0 1 6.045.575C6.85-.222 7.711-1 8.422-1.41l1.996 3.467Zm-8.316 9.71a12.56 12.56 0 0 0-.158.294c-.013.028.014-.025.036-.122.022-.102.02-.17.02-.16a11.346 11.346 0 0 0 .023.289l-3.983.373c-.026-.285-.089-.806.032-1.358.117-.534.382-.987.536-1.264l3.494 1.947Zm-.081.283c.215 2.091 1.185 5.294 2.592 8.31L.987 22.05c-1.518-3.256-2.669-6.906-2.945-9.591l3.979-.41Zm2.59 8.306c1.528 3.255 4.157 7.24 7.178 10.835l-3.063 2.573C5.54 29.972 2.7 25.697.99 22.055l3.62-1.7Zm7.178 10.835c1.51 1.797 5.148 5.434 6.907 6.927l-2.588 3.05c-1.924-1.633-5.722-5.429-7.382-7.404l3.063-2.573Zm6.902 6.922c6.512 5.488 12.925 8.79 18.518 9.748l-.675 3.943c-6.53-1.118-13.581-4.87-20.42-10.632l2.577-3.059Zm18.503 9.746a22.253 22.253 0 0 0 .987.137c.08.007.073.004.019.004v4c-.386 0-1.154-.112-1.65-.194l.644-3.947ZM38.2 48c-.313 0-.427.102-.168-.02.187-.088.469-.245.858-.496.773-.498 1.823-1.266 3.134-2.309l2.489 3.132c-1.357 1.078-2.524 1.94-3.458 2.54-.465.3-.91.56-1.317.75-.334.159-.907.403-1.538.403v-4Zm3.82-2.822c1.677-1.339 3.16-2.648 4.264-3.74a19.78 19.78 0 0 0 1.309-1.404c.35-.423.44-.607.434-.592l3.7 1.518c-.234.573-.655 1.142-1.05 1.621-.429.52-.968 1.096-1.58 1.701-1.226 1.213-2.82 2.616-4.58 4.022l-2.497-3.126Zm6.013-5.751a.955.955 0 0 0-.035.57c.044.182.113.215-.004.08-.27-.312-.903-.831-2.25-1.726l2.215-3.331c1.322.88 2.39 1.666 3.061 2.442.354.409.702.931.862 1.58.172.7.08 1.361-.16 1.933l-3.689-1.548Zm-2.283-1.072c-3.891-2.568-7.293-4.454-8.718-4.929l1.265-3.794c1.99.663 5.8 2.84 9.656 5.384l-2.203 3.339Zm-8.726-4.931a29.672 29.672 0 0 0-.394-.129l-.033-.009c.01.002.048.01.106.015a1.325 1.325 0 0 0 .442-.034c.057-.014.094-.027.1-.03.005-.001-.004.002-.043.019l-1.576-3.677c.242-.104.752-.325 1.448-.26.455.042.935.216 1.23.315l-1.28 3.79Zm.145-.155-.018.008c.003-.002.004-.002 0 0a1.679 1.679 0 0 0-.19.168c-.273.263-.684.721-1.47 1.627L32.47 32.45c1.4-1.614 2.093-2.438 3.188-2.884l1.511 3.703Zm-1.682 1.808c-.692.792-1.525 1.709-1.846 2.03l-2.828-2.83c.215-.214.968-1.038 1.66-1.831l3.014 2.63Zm-1.878 2.061-.502.48-2.763-2.892.502-.48 2.763 2.892Zm-2.369.974-.714-.178.97-3.881.714.179-.97 3.88Zm-.732-.183c-2.65-.688-6.034-2.478-8.786-4.56l2.412-3.19c2.473 1.87 5.385 3.36 7.38 3.878l-1.006 3.872Zm-8.797-4.567c-1.277-.98-3.324-2.96-4.482-4.346l3.07-2.563c.986 1.18 2.823 2.95 3.846 3.734l-2.434 3.175Zm-4.48-4.342c-2.185-2.605-4.253-6.331-5.11-9.302l3.842-1.11c.683 2.364 2.455 5.602 4.333 7.841l-3.064 2.57Zm-5.114-9.314-.246-.87 3.85-1.087.246.87-3.85 1.087Zm.252-2.815.603-.614 2.854 2.803-.603.614-2.854-2.803Zm.593-.603c.405-.419 1.292-1.218 1.973-1.796l2.59 3.048c-.659.56-1.424 1.256-1.689 1.53l-2.874-2.782Zm1.98-1.802c.772-.65 1.234-1.071 1.518-1.367.284-.296.285-.362.255-.289l3.697 1.527c-.243.587-.627 1.073-1.066 1.531-.439.457-1.037.991-1.827 1.657l-2.578-3.059Zm1.791-1.7.016-.036c-.002.006-.014.037-.027.086a1.3 1.3 0 0 0-.041.406c.006.114.026.174.013.125a14.724 14.724 0 0 0-.093-.307l3.813-1.209c.08.25.235.711.26 1.173a2.899 2.899 0 0 1-.281 1.377l-3.66-1.615Zm-.137.258c-.095-.31-.414-1.02-.961-2.065a74.604 74.604 0 0 0-1.884-3.35c-1.443-2.432-2.899-4.626-3.563-5.353L13.14-.423c.988 1.08 2.641 3.636 4.05 6.01a78.604 78.604 0 0 1 1.988 3.537c.537 1.024 1.023 2.037 1.24 2.743l-3.822 1.177Zm-6.41-10.77a5.995 5.995 0 0 0-.24-.252 1.806 1.806 0 0 0-.133-.12c-.053-.041.02.03.2.08.092.025.192.038.291.037a.916.916 0 0 0 .217-.027c.043-.01.057-.019.037-.01-.02.01-.063.03-.134.072l-2.007-3.46c.567-.33 1.508-.782 2.646-.472.956.26 1.638.973 2.08 1.457l-2.957 2.695Z" mask="url(#a)"/><path fill="#FFDD87" stroke="#996E00" stroke-width="2" d="M27.78 1.02v1.56c2.42.09 5.41.867 7.767 1.985l.002.001c4.296 2.048 7.553 5.232 9.652 9.44v.002c1.307 2.622 1.877 4.63 2.133 7.58l.055.626h1.592a29.872 29.872 0 0 0-.42-3.33l-.001-.002c-.628-3.287-2.399-7.071-4.477-9.584-3.847-4.649-8.972-7.453-14.828-8.137a37.932 37.932 0 0 0-1.476-.14ZM40.042 22.214c-.054-.6-.187-1.346-.381-2.121-.258-1.027-.601-2.018-.946-2.698l-.002-.004c-1.27-2.528-3.528-4.811-5.962-6.028h-.002a13.557 13.557 0 0 0-4.97-1.388v1.576c2.836.24 5.312 1.433 7.362 3.53 1.959 1.995 3.064 4.385 3.304 7.133h1.597Z"/></svg>
